html/dist/img/svg/ship.svg

<svg width="317" height="317" viewBox="0 0 317 317" fill="none" xmlns="http://www.w3.org/2000/svg">
<circle cx="158.5" cy="158.5" r="158" stroke="white"/>
<path fill-rule="evenodd" clip-rule="evenodd" d="M22.8796 148.283C22.7652 148.181 22.633 148.17 21.3333 148.154L19.9121 148.136L19.9121 147.711C19.9121 147.458 19.8832 147.257 19.8408 147.215C19.7975 147.172 19.5875 147.145 19.3076 147.145C18.9119 147.145 18.837 147.161 18.7842 147.258C18.7476 147.326 18.7227 147.856 18.7227 148.569C18.7227 149.991 18.7096 149.961 19.3327 149.961C19.8582 149.961 19.9121 149.903 19.9121 149.341L19.9121 148.905L21.3658 148.905C22.8006 148.905 22.8207 148.903 22.9121 148.775C23.0398 148.595 23.0279 148.416 22.8796 148.283ZM17.7365 147.18C17.6848 147.161 16.9408 147.145 16.0832 147.145C14.9498 147.145 14.5044 147.164 14.4526 147.215C14.4014 147.266 14.3812 147.648 14.3812 148.563C14.3812 149.765 14.3879 149.843 14.4962 149.9C14.668 149.991 17.6665 149.982 17.7592 149.891C17.8104 149.84 17.8306 149.453 17.8306 148.518C17.8306 147.385 17.8184 147.211 17.7365 147.18ZM16.0504 155.127C15.8965 155.046 13.4606 155.046 13.3068 155.127C13.1981 155.184 13.1918 155.263 13.1918 156.553C13.1918 157.536 13.2117 157.937 13.2631 157.988C13.3644 158.088 15.9928 158.088 16.094 157.988C16.1455 157.937 16.1654 157.536 16.1654 156.553C16.1654 155.263 16.159 155.184 16.0504 155.127ZM16.0898 159.259C16.0482 159.243 15.3859 159.237 14.6179 159.246L13.2215 159.262L13.2055 160.633C13.1943 161.596 13.2098 162.029 13.2574 162.085C13.3494 162.195 15.9839 162.204 16.094 162.096C16.1995 161.992 16.1955 159.299 16.0898 159.259ZM13.3515 144.69C13.2163 144.565 13.1807 144.563 11.3932 144.563L9.5726 144.563L9.44938 144.717C9.32764 144.87 9.32609 144.918 9.32609 148.563L9.32609 152.255L9.47209 152.399L9.61804 152.543L11.4076 152.543L13.1972 152.543L13.3431 152.399L13.4891 152.255L13.4891 148.536L13.4891 144.818L13.3515 144.69ZM12.2606 155.229C12.2183 155.079 11.9786 155.057 10.6173 155.077C9.59728 155.092 9.37117 155.111 9.32472 155.183C9.2938 155.232 9.26805 155.857 9.26751 156.573C9.26674 157.678 9.28065 157.888 9.36005 157.966C9.4395 158.045 9.65194 158.059 10.7725 158.058C11.4982 158.057 12.1317 158.032 12.1807 158.001C12.2552 157.955 12.2715 157.729 12.2795 156.638C12.2847 155.919 12.2763 155.285 12.2606 155.229ZM12.2355 159.335C12.1804 159.242 12.0446 159.232 10.7568 159.232C9.51866 159.232 9.33424 159.244 9.30272 159.325C9.23058 159.51 9.26257 162.021 9.33799 162.096C9.38943 162.146 9.7961 162.166 10.793 162.166C12.1 162.166 12.18 162.16 12.2381 162.053C12.3196 161.902 12.3172 159.473 12.2355 159.335ZM12.2355 163.442C12.1805 163.349 12.0462 163.34 10.7921 163.34C9.79592 163.34 9.38943 163.359 9.33799 163.41C9.23676 163.51 9.23676 166.103 9.33799 166.203C9.38943 166.254 9.7961 166.273 10.793 166.273C12.1 166.273 12.18 166.267 12.2381 166.16C12.3196 166.01 12.3172 163.581 12.2355 163.442ZM8.76075 167.489L8.31507 167.149L8.31507 155.091C8.31507 144.498 8.30436 143.03 8.22705 143C8.14664 142.97 1.24604 145.683 1.07434 145.812C1.01535 145.857 1 148.163 1 156.997L1 168.126L5.01538 170.58C7.43149 172.056 9.06584 173.02 9.11895 173C9.19507 172.971 9.20709 172.614 9.20679 170.397L9.20649 167.828L8.76075 167.489ZM6.31787 163.485C6.20595 163.654 5.88825 163.77 5.68022 163.719C5.42567 163.656 5.25225 163.42 5.25225 163.138C5.25225 162.856 5.34955 162.709 5.60909 162.602C5.99714 162.442 6.41196 162.707 6.41196 163.115C6.41196 163.241 6.36961 163.407 6.31787 163.485ZM6.3507 166.394C6.2725 166.538 5.98774 166.684 5.78453 166.684C5.68462 166.684 5.55294 166.611 5.42472 166.485C5.19992 166.263 5.16917 166.076 5.31232 165.803C5.42407 165.59 5.56888 165.511 5.84763 165.511C6.27071 165.511 6.55713 166.013 6.3507 166.394Z" fill="white"/>
</svg>

<svg width="317" height="317" viewBox="0 0 317 317" fill="none" xmlns="http://www.w3.org/2000/svg"><circle cx="158.5" cy="158.5" r="158" stroke="#fff"/><path fill-rule="evenodd" clip-rule="evenodd" d="M22.88 148.283c-.115-.102-.247-.113-1.547-.129l-1.42-.018v-.425c0-.253-.03-.454-.072-.496-.044-.043-.254-.07-.533-.07-.396 0-.471.016-.524.113-.036.068-.061.598-.061 1.311 0 1.422-.013 1.392.61 1.392.525 0 .58-.058.58-.62v-.436h1.453c1.435 0 1.455-.002 1.546-.13.128-.18.116-.359-.032-.492zm-5.143-1.103c-.052-.019-.796-.035-1.654-.035-1.133 0-1.579.019-1.63.07-.052.051-.072.433-.072 1.348 0 1.202.007 1.28.115 1.337.172.091 3.17.082 3.263-.009.051-.051.072-.438.072-1.373 0-1.133-.013-1.307-.095-1.338zm-1.687 7.947c-.154-.081-2.59-.081-2.743 0-.109.057-.115.136-.115 1.426 0 .983.02 1.384.071 1.435.101.1 2.73.1 2.831 0 .051-.051.071-.452.071-1.435 0-1.29-.006-1.369-.115-1.426zm.04 4.132c-.042-.016-.704-.022-1.472-.013l-1.396.016-.016 1.371c-.012.963.004 1.396.051 1.452.092.11 2.727.119 2.837.011.105-.104.101-2.797-.004-2.837zm-2.74-14.569c-.135-.125-.17-.127-1.958-.127h-1.82l-.124.154c-.121.153-.123.201-.123 3.846v3.692l.146.144.146.144h3.58l.145-.144.146-.144v-7.437l-.138-.128zm-1.09 10.539c-.043-.15-.282-.172-1.644-.152-1.02.015-1.246.034-1.292.106-.031.049-.057.674-.057 1.39-.001 1.105.013 1.315.092 1.393.08.079.292.093 1.413.092.725-.001 1.359-.026 1.408-.057.074-.046.09-.272.099-1.363.005-.719-.004-1.353-.02-1.409zm-.025 4.106c-.056-.093-.191-.103-1.48-.103-1.237 0-1.422.012-1.453.093-.072.185-.04 2.696.035 2.771.051.05.458.07 1.455.07 1.307 0 1.387-.006 1.445-.113.082-.151.08-2.58-.002-2.718zm0 4.107c-.056-.093-.19-.102-1.444-.102-.996 0-1.403.019-1.454.07-.101.1-.101 2.693 0 2.793.051.051.458.07 1.455.07 1.307 0 1.387-.006 1.445-.113.082-.15.08-2.579-.002-2.718zm-3.475 4.047l-.446-.34v-12.058c0-10.593-.01-12.061-.088-12.091-.08-.03-6.981 2.683-7.153 2.812-.059.045-.074 2.351-.074 11.185v11.129l4.015 2.454c2.416 1.476 4.05 2.44 4.104 2.42.076-.029.088-.386.088-2.603v-2.569l-.446-.339zm-2.443-4.004c-.112.169-.43.285-.638.234-.254-.063-.428-.299-.428-.581s.098-.429.357-.536c.388-.16.803.105.803.513a.792.792 0 01-.094.37zm.033 2.909c-.079.144-.363.29-.566.29-.1 0-.232-.073-.36-.199-.225-.222-.256-.409-.113-.682.112-.213.257-.292.536-.292.423 0 .71.502.503.883z" fill="#fff"/></svg>
